X: 39403
T: Tap Room, The
R: reel
M: 4/4
K: Eminor
E2 B^c dBBB|dBAF DEFD|E2 B^c dBBB|dBAF BEED|
E2 B^c dBBB|dBAF DEF2|afge fde^c|dBAF BEE2:|
B/^c/d ef gfed|B/^c/d AF DEFD|B/^c/d ef gfed|B/^c/d Ad BE E2|
B/^c/d ef gfed|B/^c/d AF DEFD|afge fde^c|dBAF DEFD:|

